X: 20343
T: John Brosnan's
R: polka
M: 2/4
K: Dmajor
A, B,C|:D>D DB|AF FB|AF DE|FE EF|
D>D DB|AF FB|AF EF|1 DA, B,C:|2 D>D FA||
|:d>d cd|BA FA|d>d cd|B2 Bc|
d>d cd|BA FB|AF EF|D>D FA:|
|:d2 e2|f3e|de/d/ Bc|d2 dA|
Bd/B/ AF|Bd/B/ AF|AF EF|1 D>D FA:|2 DA, B,C||

